X: 38
T: Sicilian Dance, The
T: Royal Albert
T: Prince of Wales Contre Dance
O: ca.1820
M: 6/8
L: 1/8
S: printed MS of unknown origin, labelled "By Mr. Fisher"
S: John Burk’s music manuscript book (1821)
S: George Spencer m/s, Leeds, 1831 (private MS)
Z: 2010 John Chambers <jc:trillian.mit.edu>
F: http://www.village-music-project.org.uk/abc/jmooret.abc
F: http://www.village-music-project.org.uk/abc/spencer.abc
F: http://www.village-music-project.org.uk/abc/nuttall.abc
F: http://home.quicknet.nl/england.abc
K: F
C \
| "F"F>GF AGF | "F"c2c "C7"c2B | "F"A>cf "Bb"c2B | "C7"ABG "F"F2C \
| "F"F>GF AGF | "F"c2c c2f | "C"e>dc "G7"dc=B | "C"c3 c2 :|
|: e/f/ \
| "C7"g2c b2a | "C7"gfe "F"f>ef | "C7"g2c b2a | "C7"gfe "F"f2f \
| "Bb"d>bb "F/A"c>aa | "C/G"B>gg "F"A>ff | "Gm"B>AG "C7"c2E | "F"F3 F2 :|
|: G \
| "F"A3 "C7"GAG | "F"F2F FAB | "F"c3 "C7"BAB | "F"B>AA "C7"Ace \
| "F"f2e "C7"e2d | "Bb"d2c "C7"c2B | "F"A>Bc c>BA | "F"A3 "C7"G2 ||
c \
| "F"f2f "G7"f>d=B | "C"c2c "C7"ceg | "C7"b3 b>ge | "F"f2f f2c \
| "F"f2e d2c | "Bb"d2c "(Gm)"B2A | "C7"B>AG c2E | "F"F3 F2 :|

%%sep 1 1 500

